X:109
T:Gala,The. WM.109
M:6/8
L:1/8
Q:3/8=120
S:Wm.Mittell’s MS, New Romney,Kent,1799
R:.Jig
O:England
A:Kent
Z:vmp.Chris Partington
K:D
dcdA2F|dgf gec|dcd egf|edcd3:|!
|:f2af2a|ecA Ace|f2af2a|^gfga3:|!
|:f2=gf2b|^a2bf2d|g2fe2d|c2Bf3:|

